dist/images/svg/slack-1239456.svg

<svg xmlns="http://www.w3.org/2000/svg" data-name="Layer 1" viewBox="0 0 24 24"><path d="M2 14.67a2 2 0 104 0v-2H4a2 2 0 00-2 2zm12.64-3.34a2 2 0 002-2V4a2 2 0 10-4 0v5.33a2 2 0 002.02 2zm7.32-2a2 2 0 10-4 0v2h2a2 2 0 002.04-2zM9.34 12.67a2 2 0 00-2 2V20a2 2 0 104 0v-5.33a2 2 0 00-2-2zM14.66 18h-2v2a2 2 0 102-2zM20 12.67h-5.34a2 2 0 000 4H20a2 2 0 000-4zM9.34 7.33H4a2 2 0 100 4h5.34a2 2 0 000-4zm0-5.33a2 2 0 000 4h2V4a2 2 0 00-2-2z"/></svg>

<svg xmlns="http://www.w3.org/2000/svg" data-name="Layer 1" viewBox="0 0 24 24"><path d="M2,14.67a2,2,0,1,0,4,0v-2H4A2,2,0,0,0,2,14.67Zm12.64-3.34a2,2,0,0,0,2-2V4a2,2,0,1,0-4,0V9.33A2,2,0,0,0,14.66,11.33Zm7.32-2a2,2,0,1,0-4,0v2h2A2,2,0,0,0,22,9.33ZM9.34,12.67a2,2,0,0,0-2,2V20a2,2,0,1,0,4,0V14.67A2,2,0,0,0,9.34,12.67ZM14.66,18h-2v2a2,2,0,1,0,2-2ZM20,12.67H14.66a2,2,0,0,0,0,4H20a2,2,0,0,0,0-4ZM9.34,7.33H4a2,2,0,1,0,0,4H9.34a2,2,0,0,0,0-4ZM9.34,2a2,2,0,0,0,0,4h2V4A2,2,0,0,0,9.34,2Z"/></svg>
